RestoDelMundo/Espana/Otras Categorias/Lledia.svg

<svg xmlns="http://www.w3.org/2000/svg" viewBox="0 0 600 600"><path fill="#0061ac" d="M483.731 72.734V54.073l-87.463-26.732V.605H213.336V27.34l-87.463 26.732v18.661h-71.72v25.513c3.799 233.143 119.762 402.099 250.649 500.689 130.89-98.59 246.85-267.545 250.719-500.755V72.734z"/><path fill="#ee3124" d="m135.373 365.18-.135-.203 8.211 16.216 17.64 31.212 19.068 29.518 20.288 27.887 21.51 26.19 22.46 24.564c19.133 19.27 38.88 38.066 60.388 54.756 21.509-16.69 41.255-35.486 60.457-54.756L387.65 496l21.511-26.19 20.354-27.887 18.999-29.518 17.642-31.212 8.211-16.216-.136.203z"/><g fill="#ffe600"><path d="m135.373 365.18 8.076 16.013 17.64 31.212 10.179 15.81V365.18ZM214.016 486.366l7.939 9.634 22.46 24.564c.542.542 1.084 1.154 1.695 1.697V365.18h-32.094zM288.79 562.294c5.293 4.41 10.517 8.821 16.012 13.026a417 417 0 0 0 16.014-13.026V365.18H288.79zM363.564 522.261c.541-.542 1.084-1.154 1.695-1.697L387.65 496l7.939-9.634V365.18h-32.025zM438.337 428.215l10.178-15.81 17.642-31.212 8.074-16.013h-35.894Z"/></g><path d="m496.149 210.543-33.791-18.794-16.149 12.755h-23.274v49.33l-113.45-24.564V88.408l-9.364-9.364V58.417l-18.659-11.264h-12.418l-11.264 8.414v30.466l-7.464 4.342v146.427l-51.432 18.728-16.895-1.9-6.582-14.047-43.155-4.816v-11.331l-14.995-1.628-15.254 59.723 4.736 14.642 6.446 17.778 6.921 17.438 7.329 17.031 7.803 16.557.135.203h338.858l.136-.203 7.805-16.557 7.326-17.031 6.92-17.438 6.447-17.778 5.904-18.25 1.523-5.235-14.143-3.044Z"/><path fill="#8ed8f8" d="M465.072 91.461V67.916l-87.531-26.734V19.333H232.064v21.849l-87.53 26.734v23.545H72.813c-.068 22.866 1.763 45.665 3.799 68.465l2.577 20.694 3.189 20.287 3.8 19.814 4.343 19.473 4.885 19.066 5.429 18.662 1.166 3.608 15.254-59.724 14.996 1.628v11.331l43.154 4.816 6.583 14.047 16.895 1.899 51.433-18.727V90.375l7.464-4.342V55.567l11.264-8.414h12.417l18.659 11.264v20.627l9.365 9.364V229.27l113.45 24.564v-49.33h23.274l16.149-12.755 33.791 18.795v59.101l14.143 3.044 3.905-13.427 4.886-19.066 4.341-19.473 3.8-19.814 3.188-20.287 2.58-20.694c2.103-22.8 3.934-45.599 3.867-68.465h-71.787z"/><path fill="#fff" d="M316.948 240.331h7.532v33.723h-7.532ZM349.857 247.387h7.463v33.724h-7.463ZM382.63 254.512h7.533v33.724h-7.533ZM409.839 260.348h7.531v33.791h-7.531ZM272.776 80.333l-13.843 3.868V58.959l13.843-10.45ZM273.929 48.306h7.533v33.18h-7.533ZM426.735 237.82h3.731v15.063h-3.731ZM426.735 212.579h3.731v10.244h-3.731ZM462.967 192.967l-14.452 11.334 22.528 4.75ZM446.073 258.787v-53.605l5.427 1.087v53.739ZM272.03 263.74l18.727 2.171V88.408l-18.727-3.867ZM270.944 263.671l-69.55-7.87 50.007-18.252V93.632l11.266-6.581 8.277-2.239ZM452.586 260.212v-53.673l19.135 4.004v53.807Z"/><path d="M259.273 102.655h3.732v30.061h-3.732ZM259.273 158.906h3.732v30.059h-3.732ZM259.273 222.756h3.732v29.992h-3.732ZM279.56 218.958h3.733v29.991h-3.733ZM279.56 100.758h3.733v30.056h-3.733ZM460.525 217.532h3.732v34.741h-3.732ZM289.129 170.171c0-4.208-3.46-7.668-7.667-7.668a7.66 7.66 0 0 0-7.668 7.668 7.66 7.66 0 0 0 7.668 7.667c4.206 0 7.667-3.46 7.667-7.667"/><path fill="#fff" d="M287.975 170.171c0-3.597-2.919-6.582-6.513-6.582-3.665 0-6.582 2.985-6.582 6.582 0 3.595 2.918 6.58 6.582 6.58 3.595 0 6.513-2.985 6.513-6.58"/><path d="m286.685 170.171-1.153.542h-3.527c-.341 0-.543-.204-.543-.542 0-.271.202-.544.543-.544h3.527z"/><g fill="#fff"><path d="M171.81 338.377c0 4.072-.747 7.125-2.17 9.026-1.493 1.898-3.733 2.848-6.853 2.848-3.054 0-5.226-.882-6.513-2.577-1.223-1.765-1.901-4.885-1.901-9.297v-32.094h-5.293v31.077c0 4.073.135 6.921.475 8.618.34 1.63.951 3.054 1.764 4.14q1.73 2.34 4.682 3.663 2.951 1.222 6.718 1.222c2.443 0 4.614-.34 6.513-1.155 1.901-.815 3.529-1.968 4.818-3.528 1.086-1.289 1.832-2.713 2.308-4.411.474-1.628.678-4.476.678-8.55v-31.077h-5.225zM189.589 347.404h5.63v6.58h-5.63ZM213.133 331.389h17.166v-4.817h-17.166v-15.334h18.388v-4.955H207.84v47.701h23.886v-5.021h-18.593ZM242.988 347.404h5.631v6.58h-5.631ZM279.155 306.283h-5.361v47.701h24.292v-5.156h-18.931ZM312.471 306.283h-5.293v47.701h24.359v-5.156h-19.066ZM345.854 331.389h17.166v-4.817h-17.166v-15.334h18.388v-4.955H340.56v47.701h23.886v-5.021h-18.592ZM374.895 306.283h5.429v47.701h-5.429ZM406.447 306.283H392.06v47.701h12.35c.746 0 1.426-.067 2.037-.067 2.171-.136 3.868-.408 5.156-.813 1.561-.61 3.054-1.63 4.343-2.985 1.832-2.105 3.257-4.818 4.139-8.347.814-3.46 1.29-7.871 1.29-13.232 0-7.599-1.29-13.23-3.869-16.826-2.374-3.463-6.107-5.227-11.059-5.431m8.346 34.131q-.713 3.664-2.444 6.108-1.016 1.526-2.85 2.238c-.813.272-1.832.477-3.053.542-.611.068-1.357.068-2.172.068h-6.853v-38.472h6.717c.814 0 1.63 0 2.308.136 3.189.407 5.36 1.628 6.717 3.73 1.561 2.58 2.374 7.736 2.374 15.404.001 4.411-.269 7.804-.744 10.246M448.719 306.283h-6.785l-13.027 47.701h5.428l3.461-13.774h15.131l3.595 13.774h5.362zm-9.703 29.109 6.31-25.038v.068l6.379 24.969h-12.689z"/></g><path d="M365.885 458.672c4.349-5.531 7.506-12.012 8.331-17.632v-5.293a21 21 0 0 0-.204-.949c-4.681-2.239-11.942-1.424-19.064 1.29a49 49 0 0 0-5.844 2.691c-2.994-9.369-10.953-17.698-16.798-21.231 1.121-4.603 1.059-9.571 3.032-14.233 2.441-5.7 8.209-4.274 10.312-3.868-6.194-2.42-18.336-3.397-27.869.537-1.999-9.692-6.949-18.826-12.979-21.639-6.087 2.813-10.998 11.952-12.982 21.647-9.447-3.941-21.608-2.965-27.867-.544 2.105-.407 7.872-1.833 10.315 3.868 2.444 5.767 1.765 12.009 4.072 17.436 5.281 12.334 14.043 14.658 20.585 11.805-.931 14.733-1.724 32.645-1.926 50.892v-.678h-.068v-.067l-21.56-15.185c7.31-2.531 12.372-11.064 5.888-24.035-2.647-5.293-7.872-8.752-10.654-14.385-2.782-5.564 1.967-9.023 3.664-10.382-5.835 3.243-14.43 11.864-17.565 21.679a48.5 48.5 0 0 0-5.845-2.679c-7.124-2.716-14.385-3.531-19.066-1.29-.067.271-.137.611-.204.882v5.429c.826 5.585 4.008 12.051 8.367 17.564-9.125 4.711-16.228 14.6-18.41 20.908 1.018-1.9 3.664-7.126 9.635-5.359 5.971 1.831 10.314 6.378 15.945 8.142 13.979 4.248 21.546-2.328 22.723-10.048l27.015 18.461v-.134c0 2.374 0 4.749.067 7.124v5.767c.204 14.114.747 27.751 1.765 39.695.407 4.342.61 20.423 6.105 20.423 5.499 0 5.633-16.081 6.039-20.423 1.018-11.195 1.562-23.952 1.765-37.183.061-7.156.057-14.414.012-21.639.008.852.023 1.704.056 2.572l23.195-16.991c.779 8.033 8.379 15.165 22.809 10.749 5.633-1.697 9.974-6.31 15.945-8.075 5.971-1.832 8.619 3.461 9.704 5.292-2.241-6.253-9.355-16.19-18.441-20.911m-53.28 24.573-.002-.14.002.071.001.275zm0-3.733h-.062c-.307-16.89-1.003-33.318-1.929-46.984 6.553 2.894 15.353.596 20.651-11.776.423-.998.747-2.025 1.007-3.07 2.003 1.653 5.372 4.968 2.928 9.857-2.781 5.565-8.007 9.026-10.652 14.318-6.627 13.191-1.283 21.79 6.232 24.158z"/><g fill="#fff"><path d="M293.59 432.333c6.905.058 10.398-5.745 10.398-5.745-4.056-7.661.008-14.589.008-14.589-10.175-16.753-31.627-13.095-31.627-13.095s2.668 1.425 3.791 5.816c1.727 6.754 1.727 14.765 5.968 20.419s7.686 7.164 11.462 7.194"/><path d="M304.802 379.905s8.292 3.704 11.736 20.622c0 0-7.639 3.305-11.757 10.111 0 0-3.047-5.911-11.674-10.077 0 0 2.328-15.63 11.695-20.656"/><path d="M316.083 432.333c3.776.005 7.22-1.54 11.461-7.194s4.241-13.664 5.968-20.419c1.123-4.391 3.791-5.816 3.791-5.816s-10.118-1.275-17.477 1.743c-8.922 3.658-16.519 10.989-16.383 18.053.001 0-.21 13.61 12.64 13.633"/></g><g fill="#fff"><path d="M265.901 479.667c4.481-5.252 2.284-11.658 2.284-11.658-8.475-1.819-11.172-9.384-11.172-9.384-19.373-2.975-30.36 15.811-30.36 15.811s2.806-1.128 6.893.834c6.284 3.019 12.419 8.168 19.478 8.554 7.057.385 10.426-1.284 12.877-4.157"/><path d="M232.946 437.376s8.166-3.971 23.34 4.265c0 0-2.377 7.975.188 15.506 0 0-6.484-1.465-15.219 2.465 0 .001-10.48-11.83-8.309-22.236"/><path d="M280.067 462.615c2.481-2.846 3.574-6.46 2.09-13.369-1.485-6.91-7.531-12.167-11.496-17.901-2.576-3.728-1.902-6.677-1.902-6.677s-7.601 6.801-10.151 14.333c-3.091 9.133-2.542 19.677 2.877 24.207.001 0 10.136 9.091 18.582-.593"/></g><g fill="#fff"><path d="M339.906 478.038c-4.484-5.253-2.285-11.66-2.285-11.66 8.474-1.816 11.169-9.382 11.169-9.382 19.375-2.975 30.362 15.811 30.362 15.811s-2.807-1.128-6.893.835c-6.285 3.018-12.421 8.166-19.478 8.554-7.056.385-10.427-1.286-12.875-4.158"/><path d="M372.859 435.747s-8.167-3.969-23.34 4.266c0 0 2.377 7.976-.188 15.506 0 0 6.486-1.466 15.219 2.464 0 .001 10.479-11.829 8.309-22.236"/><path d="M325.445 460.806c-2.432-2.888-3.463-6.521-1.857-13.403s7.742-12.032 11.805-17.698c2.642-3.683 2.018-6.642 2.018-6.642s7.48 6.932 9.9 14.508c2.93 9.185 2.199 19.718-3.299 24.152.001.001-10.289 8.912-18.567-.917"/></g><path fill="#00a76d" d="m332.424 466.424-21.176 15.735c0-.611-.067-1.222-.067-1.764-.135-7.329-.34-14.657-.543-21.983-.135-3.462-.338-6.921-.475-10.382-.272-5.293-.544-10.586-.884-15.878q-.065-.193-.131-.381a14.5 14.5 0 0 1-4.352-4.002 14.4 14.4 0 0 1-4.421 4.05q-.06.165-.119.334c-.475 7.599-.813 15.13-1.153 22.731a788 788 0 0 0-.611 18.047q-.103 6.21-.204 12.419l-24.633-17.357c-1.33.28-2.705.374-4.078.271.336 1.352.478 2.736.423 4.108l28.222 19.355v3.663c0 4.955.067 9.907.134 14.862.069 4.816.272 9.634.407 14.453.137 3.392.341 6.852.544 10.312l.747 9.705.134 2.17c.206 3.19.475 6.379.95 9.567l.476 2.442.882 2.647.543 1.018.542.747c.203.204.407.406.745.542.272.068.407.068.679.068.34-.068.475-.205.746-.338l.273-.272.542-.747c.271-.542.476-1.018.745-1.628q.307-1.017.612-2.037l.338-1.628c.612-3.392.882-6.919 1.086-10.38.204-2.849.474-5.699.679-8.619.203-3.324.407-6.716.61-10.109.134-3.528.272-7.057.407-10.652.135-6.106.271-12.282.271-18.388v-11.196l24.489-17.976c.021-1.113.17-2.228.449-3.321-1.286.1-2.576.029-3.828-.208"/></svg>

<svg enable-background="new 0 0 600 600" viewBox="0 0 600 600" xmlns="http://www.w3.org/2000/svg"><path d="M 483.731 72.734 V 54.073 l -87.463 -26.732 V .605 H 213.336 v 26.735 l -87.463 26.732 v 18.661 h -71.72 c 0 .271 0 .542 0 .747 v 24.766 c 3.799 233.143 119.762 402.099 250.649 500.689 c 130.89 -98.59 246.85 -267.545 250.719 -500.755 V 73.616 c 0 -.273 0 -.611 0 -.882 H 483.731 z" fill="#0061ac"/><path d="M 135.373 365.18 l -.135 -.203 l 8.211 16.216 l 17.64 31.212 l 19.068 29.518 l 20.288 27.887 l 21.51 26.19 l 22.46 24.564 c 19.133 19.27 38.88 38.066 60.388 54.756 c 21.509 -16.69 41.255 -35.486 60.457 -54.756 L 387.65 496 l 21.511 -26.19 l 20.354 -27.887 l 18.999 -29.518 l 17.642 -31.212 l 8.211 -16.216 l -.136 .203 H 135.373 z" fill="#ee3124"/><g><path d="M 135.373 365.18 L 143.449 381.193 L 161.089 412.405 L 171.268 428.215 L 171.268 365.18 Z" fill="#ffe600"/><path d="M 214.016 486.366 l 7.939 9.634 l 22.46 24.564 c .542 .542 1.084 1.154 1.695 1.697 V 365.18 h -32.094 V 486.366 z" fill="#ffe600"/><path d="M 288.79 562.294 c 5.293 4.41 10.517 8.821 16.012 13.026 c 5.429 -4.206 10.789 -8.547 16.014 -13.026 V 365.18 H 288.79 V 562.294 z" fill="#ffe600"/><path d="M 363.564 522.261 c .541 -.542 1.084 -1.154 1.695 -1.697 L 387.65 496 l 7.939 -9.634 V 365.18 h -32.025 V 522.261 z" fill="#ffe600"/><path d="M 438.337 428.215 L 448.515 412.405 L 466.157 381.193 L 474.231 365.18 L 438.337 365.18 Z" fill="#ffe600"/></g><path d="M 496.149 210.543 L 462.358 191.749 L 446.209 204.504 L 422.935 204.504 L 422.935 253.834 L 309.485 229.27 L 309.485 88.408 L 300.121 79.044 L 300.121 58.417 L 281.462 47.153 L 269.044 47.153 L 257.78 55.567 L 257.78 86.033 L 250.316 90.375 L 250.316 236.802 L 198.884 255.53 L 181.989 253.63 L 175.407 239.583 L 132.252 234.767 L 132.252 223.436 L 117.257 221.808 L 102.003 281.531 L 106.739 296.173 L 113.185 313.951 L 120.106 331.389 L 127.435 348.42 L 135.238 364.977 L 135.373 365.18 L 474.231 365.18 L 474.367 364.977 L 482.172 348.42 L 489.498 331.389 L 496.418 313.951 L 502.865 296.173 L 508.769 277.923 L 510.292 272.688 L 496.149 269.644 Z"/><path d="M 465.072 91.461 V 67.916 l -87.531 -26.734 V 19.333 H 232.064 v 21.849 l -87.53 26.734 v 23.545 H 72.813 c -.068 22.866 1.763 45.665 3.799 68.465 l 2.577 20.694 l 3.189 20.287 l 3.8 19.814 l 4.343 19.473 l 4.885 19.066 l 5.429 18.662 l 1.166 3.608 l 15.254 -59.724 l 14.996 1.628 v 11.331 l 43.154 4.816 l 6.583 14.047 l 16.895 1.899 l 51.433 -18.727 V 90.375 l 7.464 -4.342 V 55.567 l 11.264 -8.414 h 12.417 l 18.659 11.264 v 20.627 l 9.365 9.364 V 229.27 l 113.45 24.564 v -49.33 h 23.274 l 16.149 -12.755 l 33.791 18.795 v 59.101 l 14.143 3.044 l 3.905 -13.427 l 4.886 -19.066 l 4.341 -19.473 l 3.8 -19.814 l 3.188 -20.287 l 2.58 -20.694 c 2.103 -22.8 3.934 -45.599 3.867 -68.465 H 465.072 z" fill="#8ed8f8"/><path d="M 316.948 240.331 H 324.48 V 274.054 H 316.948 Z" fill="#fff"/><path d="M 349.857 247.387 H 357.32 V 281.111 H 349.857 Z" fill="#fff"/><path d="M 382.63 254.512 H 390.163 V 288.236 H 382.63 Z" fill="#fff"/><path d="M 409.839 260.348 H 417.37 V 294.139 H 409.839 Z" fill="#fff"/><path d="M 272.776 80.333 L 258.933 84.201 L 258.933 58.959 L 272.776 48.509 Z" fill="#fff"/><path d="M 273.929 48.306 H 281.462 V 81.486 H 273.929 Z" fill="#fff"/><path d="M 426.735 237.82 H 430.466 V 252.883 H 426.735 Z" fill="#fff"/><path d="M 426.735 212.579 H 430.466 V 222.823 H 426.735 Z" fill="#fff"/><path d="M 462.967 192.967 L 448.515 204.301 L 471.043 209.051 Z" fill="#fff"/><path d="M 446.073 258.787 L 446.073 205.182 L 451.5 206.269 L 451.5 260.008 Z" fill="#fff"/><path d="M 272.03 263.74 L 290.757 265.911 L 290.757 88.408 L 272.03 84.541 Z" fill="#fff"/><path d="M 270.944 263.671 L 201.394 255.801 L 251.401 237.549 L 251.401 93.632 L 262.667 87.051 L 270.944 84.812 Z" fill="#fff"/><path d="M 452.586 260.212 L 452.586 206.539 L 471.721 210.543 L 471.721 264.35 Z" fill="#fff"/><path d="M 259.273 102.655 H 263.005 V 132.716 H 259.273 Z"/><path d="M 259.273 158.906 H 263.005 V 188.965 H 259.273 Z"/><path d="M 259.273 222.756 H 263.005 V 252.748 H 259.273 Z"/><path d="M 279.56 218.958 H 283.293 V 248.949 H 279.56 Z"/><path d="M 279.56 100.758 H 283.293 V 130.814 H 279.56 Z"/><path d="M 460.525 217.532 H 464.257 V 252.273 H 460.525 Z"/><path d="M 289.129 170.171 c 0 -4.208 -3.46 -7.668 -7.667 -7.668 c -4.276 0 -7.668 3.46 -7.668 7.668 c 0 4.207 3.392 7.667 7.668 7.667 C 285.668 177.838 289.129 174.378 289.129 170.171 z"/><path d="M 287.975 170.171 c 0 -3.597 -2.919 -6.582 -6.513 -6.582 c -3.665 0 -6.582 2.985 -6.582 6.582 c 0 3.595 2.918 6.58 6.582 6.58 C 285.057 176.751 287.975 173.766 287.975 170.171 z" fill="#fff"/><path d="M 286.685 170.171 l -1.153 .542 h -3.527 c -.341 0 -.543 -.204 -.543 -.542 c 0 -.271 .202 -.544 .543 -.544 h 3.527 L 286.685 170.171 z"/><g><path d="M 171.81 338.377 c 0 4.072 -.747 7.125 -2.17 9.026 c -1.493 1.898 -3.733 2.848 -6.853 2.848 c -3.054 0 -5.226 -.882 -6.513 -2.577 c -1.223 -1.765 -1.901 -4.885 -1.901 -9.297 v -32.094 h -5.293 v 31.077 c 0 4.073 .135 6.921 .475 8.618 c .34 1.63 .951 3.054 1.764 4.14 c 1.153 1.56 2.714 2.781 4.682 3.663 c 1.968 .815 4.206 1.222 6.718 1.222 c 2.443 0 4.614 -.34 6.513 -1.155 c 1.901 -.815 3.529 -1.968 4.818 -3.528 c 1.086 -1.289 1.832 -2.713 2.308 -4.411 c .474 -1.628 .678 -4.476 .678 -8.55 v -31.077 h -5.225 V 338.377 z" fill="#fff"/><path d="M 189.589 347.404 H 195.219 V 353.984 H 189.589 Z" fill="#fff"/><path d="M 213.133 331.389 L 230.299 331.389 L 230.299 326.572 L 213.133 326.572 L 213.133 311.238 L 231.521 311.238 L 231.521 306.283 L 207.84 306.283 L 207.84 353.984 L 231.726 353.984 L 231.726 348.963 L 213.133 348.963 Z" fill="#fff"/><path d="M 242.988 347.404 H 248.619 V 353.984 H 242.988 Z" fill="#fff"/><path d="M 279.155 306.283 L 273.794 306.283 L 273.794 353.984 L 298.086 353.984 L 298.086 348.828 L 279.155 348.828 Z" fill="#fff"/><path d="M 312.471 306.283 L 307.178 306.283 L 307.178 353.984 L 331.537 353.984 L 331.537 348.828 L 312.471 348.828 Z" fill="#fff"/><path d="M 345.854 331.389 L 363.02 331.389 L 363.02 326.572 L 345.854 326.572 L 345.854 311.238 L 364.242 311.238 L 364.242 306.283 L 340.56 306.283 L 340.56 353.984 L 364.446 353.984 L 364.446 348.963 L 345.854 348.963 Z" fill="#fff"/><path d="M 374.895 306.283 H 380.324 V 353.984 H 374.895 Z" fill="#fff"/><path d="M 406.447 306.283 c -.271 0 -.543 0 -.883 0 H 392.06 v 47.701 h 12.35 c .746 0 1.426 -.067 2.037 -.067 c 2.171 -.136 3.868 -.408 5.156 -.813 c 1.561 -.61 3.054 -1.63 4.343 -2.985 c 1.832 -2.105 3.257 -4.818 4.139 -8.347 c .814 -3.46 1.29 -7.871 1.29 -13.232 c 0 -7.599 -1.29 -13.23 -3.869 -16.826 C 415.132 308.251 411.399 306.487 406.447 306.283 z M 414.793 340.414 c -.476 2.443 -1.29 4.478 -2.444 6.108 c -.677 1.016 -1.628 1.764 -2.85 2.238 c -.813 .272 -1.832 .477 -3.053 .542 c -.611 .068 -1.357 .068 -2.172 .068 h -6.853 v -38.472 h 6.717 c .814 0 1.63 0 2.308 .136 c 3.189 .407 5.36 1.628 6.717 3.73 c 1.561 2.58 2.374 7.736 2.374 15.404 C 415.538 334.579 415.268 337.972 414.793 340.414 z" fill="#fff"/><path d="M 448.719 306.283 h -3.393 h -3.392 l -13.027 47.701 h 5.428 l 3.461 -13.774 h 15.131 l 3.595 13.774 h 5.362 L 448.719 306.283 z M 439.016 335.392 l 6.31 -25.038 v .068 l 6.379 24.969 H 439.016 z" fill="#fff"/></g><path d="M 365.885 458.672 c 4.349 -5.531 7.506 -12.012 8.331 -17.632 v -5.293 c -.067 -.338 -.136 -.678 -.204 -.949 c -4.681 -2.239 -11.942 -1.424 -19.064 1.29 c -1.978 .755 -3.946 1.66 -5.844 2.691 c -2.994 -9.369 -10.953 -17.698 -16.798 -21.231 c 1.121 -4.603 1.059 -9.571 3.032 -14.233 c 2.441 -5.7 8.209 -4.274 10.312 -3.868 c -6.194 -2.42 -18.336 -3.397 -27.869 .537 c -1.999 -9.692 -6.949 -18.826 -12.979 -21.639 c -6.087 2.813 -10.998 11.952 -12.982 21.647 c -9.447 -3.941 -21.608 -2.965 -27.867 -.544 c 2.105 -.407 7.872 -1.833 10.315 3.868 c 2.444 5.767 1.765 12.009 4.072 17.436 c 5.281 12.334 14.043 14.658 20.585 11.805 c -.931 14.733 -1.724 32.645 -1.926 50.892 c 0 -.203 0 -.407 0 -.678 h -.068 v -.067 l -21.56 -15.185 c 7.31 -2.531 12.372 -11.064 5.888 -24.035 c -2.647 -5.293 -7.872 -8.752 -10.654 -14.385 c -2.782 -5.564 1.967 -9.023 3.664 -10.382 c -5.835 3.243 -14.43 11.864 -17.565 21.679 c -1.896 -1.026 -3.864 -1.927 -5.845 -2.679 c -7.124 -2.716 -14.385 -3.531 -19.066 -1.29 c -.067 .271 -.137 .611 -.204 .882 v 5.429 c .826 5.585 4.008 12.051 8.367 17.564 c -9.125 4.711 -16.228 14.6 -18.41 20.908 c 1.018 -1.9 3.664 -7.126 9.635 -5.359 c 5.971 1.831 10.314 6.378 15.945 8.142 c 13.979 4.248 21.546 -2.328 22.723 -10.048 l 27.015 18.461 c 0 0 0 -.065 0 -.134 c 0 2.374 0 4.749 .067 7.124 v .813 v .815 v .814 v .814 v .815 v .881 v .815 c .204 14.114 .747 27.751 1.765 39.695 c .407 4.342 .61 20.423 6.105 20.423 c 5.499 0 5.633 -16.081 6.039 -20.423 c 1.018 -11.195 1.562 -23.952 1.765 -37.183 c .061 -7.156 .057 -14.414 .012 -21.639 c .008 .852 .023 1.704 .056 2.572 l 23.195 -16.991 c .779 8.033 8.379 15.165 22.809 10.749 c 5.633 -1.697 9.974 -6.31 15.945 -8.075 c 5.971 -1.832 8.619 3.461 9.704 5.292 C 382.085 473.33 374.971 463.393 365.885 458.672 z M 312.605 483.245 c 0 -.046 -.002 -.091 -.002 -.14 c .002 .025 .002 .048 .002 .071 c 0 .092 .001 .183 .001 .275 C 312.605 483.384 312.606 483.313 312.605 483.245 z M 312.605 479.512 h -.062 c -.307 -16.89 -1.003 -33.318 -1.929 -46.984 c 6.553 2.894 15.353 .596 20.651 -11.776 c .423 -.998 .747 -2.025 1.007 -3.07 c 2.003 1.653 5.372 4.968 2.928 9.857 c -2.781 5.565 -8.007 9.026 -10.652 14.318 c -6.627 13.191 -1.283 21.79 6.232 24.158 L 312.605 479.512 z"/><g><path d="M 293.59 432.333 c 6.905 .058 10.398 -5.745 10.398 -5.745 c -4.056 -7.661 .008 -14.589 .008 -14.589 c -10.175 -16.753 -31.627 -13.095 -31.627 -13.095 s 2.668 1.425 3.791 5.816 c 1.727 6.754 1.727 14.765 5.968 20.419 C 286.369 430.793 289.814 432.303 293.59 432.333 z" fill="#fff"/><path d="M 304.802 379.905 c 0 0 8.292 3.704 11.736 20.622 c 0 0 -7.639 3.305 -11.757 10.111 c 0 0 -3.047 -5.911 -11.674 -10.077 C 293.107 400.561 295.435 384.931 304.802 379.905 z" fill="#fff"/><path d="M 316.083 432.333 c 3.776 .005 7.22 -1.54 11.461 -7.194 c 4.241 -5.654 4.241 -13.664 5.968 -20.419 c 1.123 -4.391 3.791 -5.816 3.791 -5.816 s -10.118 -1.275 -17.477 1.743 c -8.922 3.658 -16.519 10.989 -16.383 18.053 C 303.444 418.7 303.233 432.31 316.083 432.333 z" fill="#fff"/></g><g><path d="M 265.901 479.667 c 4.481 -5.252 2.284 -11.658 2.284 -11.658 c -8.475 -1.819 -11.172 -9.384 -11.172 -9.384 c -19.373 -2.975 -30.36 15.811 -30.36 15.811 s 2.806 -1.128 6.893 .834 c 6.284 3.019 12.419 8.168 19.478 8.554 C 260.081 484.209 263.45 482.54 265.901 479.667 z" fill="#fff"/><path d="M 232.946 437.376 c 0 0 8.166 -3.971 23.34 4.265 c 0 0 -2.377 7.975 .188 15.506 c 0 0 -6.484 -1.465 -15.219 2.465 C 241.255 459.613 230.775 447.782 232.946 437.376 z" fill="#fff"/><path d="M 280.067 462.615 c 2.481 -2.846 3.574 -6.46 2.09 -13.369 c -1.485 -6.91 -7.531 -12.167 -11.496 -17.901 c -2.576 -3.728 -1.902 -6.677 -1.902 -6.677 s -7.601 6.801 -10.151 14.333 c -3.091 9.133 -2.542 19.677 2.877 24.207 C 261.486 463.208 271.621 472.299 280.067 462.615 z" fill="#fff"/></g><g><path d="M 339.906 478.038 c -4.484 -5.253 -2.285 -11.66 -2.285 -11.66 c 8.474 -1.816 11.169 -9.382 11.169 -9.382 c 19.375 -2.975 30.362 15.811 30.362 15.811 s -2.807 -1.128 -6.893 .835 c -6.285 3.018 -12.421 8.166 -19.478 8.554 C 345.725 482.581 342.354 480.91 339.906 478.038 z" fill="#fff"/><path d="M 372.859 435.747 c 0 0 -8.167 -3.969 -23.34 4.266 c 0 0 2.377 7.976 -.188 15.506 c 0 0 6.486 -1.466 15.219 2.464 C 364.55 457.984 375.029 446.154 372.859 435.747 z" fill="#fff"/><path d="M 325.445 460.806 c -2.432 -2.888 -3.463 -6.521 -1.857 -13.403 c 1.607 -6.883 7.742 -12.032 11.805 -17.698 c 2.642 -3.683 2.018 -6.642 2.018 -6.642 s 7.48 6.932 9.9 14.508 c 2.93 9.185 2.199 19.718 -3.299 24.152 C 344.013 461.724 333.723 470.635 325.445 460.806 z" fill="#fff"/></g><path d="M 332.424 466.424 l -21.176 15.735 c 0 -.611 -.067 -1.222 -.067 -1.764 c -.135 -7.329 -.34 -14.657 -.543 -21.983 c -.135 -3.462 -.338 -6.921 -.475 -10.382 c -.272 -5.293 -.544 -10.586 -.884 -15.878 c -.043 -.129 -.087 -.255 -.131 -.381 c -1.694 -1.004 -3.182 -2.374 -4.352 -4.002 c -1.185 1.654 -2.698 3.042 -4.421 4.05 c -.041 .11 -.079 .221 -.119 .334 c -.475 7.599 -.813 15.13 -1.153 22.731 c -.273 6.038 -.476 12.01 -.611 18.047 c -.068 4.14 -.137 8.279 -.204 12.419 l -24.633 -17.357 c -1.33 .28 -2.705 .374 -4.078 .271 c .336 1.352 .478 2.736 .423 4.108 l 28.222 19.355 c 0 1.223 0 2.443 0 3.663 c 0 4.955 .067 9.907 .134 14.862 c .069 4.816 .272 9.634 .407 14.453 c .137 3.392 .341 6.852 .544 10.312 l .747 9.705 l .134 2.17 c .206 3.19 .475 6.379 .95 9.567 l .476 2.442 l .882 2.647 l .543 1.018 l .542 .747 c .203 .204 .407 .406 .745 .542 c .272 .068 .407 .068 .679 .068 c .34 -.068 .475 -.205 .746 -.338 l .273 -.272 l .542 -.747 c .271 -.542 .476 -1.018 .745 -1.628 c .205 -.678 .408 -1.357 .612 -2.037 l .338 -1.628 c .612 -3.392 .882 -6.919 1.086 -10.38 c .204 -2.849 .474 -5.699 .679 -8.619 c .203 -3.324 .407 -6.716 .61 -10.109 c .134 -3.528 .272 -7.057 .407 -10.652 c .135 -6.106 .271 -12.282 .271 -18.388 c 0 -3.733 0 -7.464 0 -11.196 l 24.489 -17.976 c .021 -1.113 .17 -2.228 .449 -3.321 C 334.966 466.732 333.676 466.661 332.424 466.424 z" fill="#00a76d"/></svg>
